X: 10068
T: Dick's Maggot
R: three-two
M: 3/2
K: Gmajor
g2d2- d2c2- c2A2|Bcd2 G2F2 G4|g2d2- d2c2- c2A2|Bcd2 D2F2 G4||
g2d2- d2B2- B2A2|B2d2 cBA2 B4|g2d2- d2B2- B2A2|Bcd2 G2F2 G4||
f2a2- a2f2- f2d2|gab2 e2g2 f4|f2b2- b2e2- e2^c2|def2 A2^c2 d4|
Bcd2 B2d2 c4|efg2 e2g2 f4|g2d2- d2c2- c2A2|Bcd2 D2F2 G4||

